packages/elvis-assets-icons/icons/svg/src/filter-filled.svg

<svg width="24" height="24" viewBox="0 0 24 24" fill="none" xmlns="http://www.w3.org/2000/svg">
<g clip-path="url(#clip0)">
<path d="M8.99117 22.4446C8.99117 23.3021 9.66651 24 10.4952 24C10.8459 24 11.1865 23.8714 11.4561 23.6391L14.4611 21.0478C14.8057 20.7513 15.0041 20.3158 15.0031 19.8522V12.8228C19.946 11.4997 23.6253 6.9558 23.995 1.66844C23.996 1.66533 23.996 1.66118 23.996 1.65807C24.0221 1.24226 23.8898 0.841996 23.6253 0.529877C23.3608 0.217758 22.995 0.0300713 22.5963 0.00311084C22.5632 0.00103696 22.5291 0 22.4961 0H1.50226C1.10046 0 0.722708 0.1628 0.439143 0.456254C0.155579 0.750745 -0.000732422 1.14167 -0.000732422 1.55645C-0.000732422 1.59067 0.00127157 1.62489 0.00327556 1.66325C0.370006 6.95165 4.04833 11.4966 8.99117 12.8228V22.4446Z" fill="black"/>
</g>
<defs>
<clipPath id="clip0">
<path d="M-0.000732422 0H23.9993V24H-0.000732422V0Z" fill="white"/>
</clipPath>
</defs>
</svg>

<svg width="24" height="24" fill="none" xmlns="http://www.w3.org/2000/svg"><g clip-path="url(#clip0)"><path d="M8.991 22.445c0 .857.676 1.555 1.504 1.555.35 0 .692-.129.961-.36l3.005-2.592c.345-.297.543-.732.542-1.196v-7.03c4.943-1.322 8.622-5.866 8.992-11.154l.001-.01a1.582 1.582 0 00-.37-1.128 1.473 1.473 0 00-1.13-.53H1.502C1.1 0 .722.163.44.456.156.751 0 1.142 0 1.556c0 .035.002.069.004.107.367 5.289 4.045 9.834 8.988 11.16v9.622z" fill="#000"/></g><defs><clipPath id="clip0"><path d="M0 0h24v24H0V0z" fill="#fff"/></clipPath></defs></svg>
